X:1
T:The Cobbler
M:2/4
L:1/4
K:Ab
 c3/2- B/2| A F| F E| C- C| C z/2 E/2| A A| BA/2-B/2| c B| B2| c3/2- B/2|\
 A F| E C| E3/2 F/2| E E/2E/2| A A| BA/2-B/2| c A| A2| A3/2 c/2| f e|\
 c2| A3/2 c/2| f e| c e| A3/2 c/2| f e| c2| A3/2 c/2| B A| F A|
